X:71
T:Lisheen Slide, The
R:slide
H:Also played in A, see #30
Z:id:hn-slide-71
M:6/8
L:1/8
K:G
B3 BAB | G2B A2G | B3 BAG | A2B c2d | BcB BAB | GAG GBd | g2e dBG | A2B c2d :|
|: gfg dBd | ede dBd | gfg aga | bgb afd | gfg dBd | ede dBd | gfg aga | bgf g2d :|

